X:5
T:Kesh Jig
M:6/8
L:1/8
R:jig
N:Learned from David Lindquist
Z:Michael Abraham Shulman
K:G
|:"G"~G3 GAB|"C"~A3 "D"ABd|"G"edd gdd|"C"edB "D"dBA|
"G"~G3 GAB|"D"~A3 ABd|"C"edd "G"gdB|"D"AGF "G"G3:|
|:"G"B2B dBd|"C"ege "G"dBG|B2B dBG|"D"ABA AGA|
"G"B2B dBd|"C"ege "G"dBd|"C"gfg "D"aga|"C"bgf "G"g3:|
